X:46802
T:Banjo Breakdown
H:
C: Arranged by Pipe Major Donald MacLeod,MBE
B: Scots Guards II
O:Kevin Fraser
Z:Kevin Fraser
Q:3/8=120
K:HP
M:6/8
L:1/8
R:Jig
U: R = ///
U: r = //
U: V = !accent!
V:M gstem=up stem=down name="Melody"
V:H gstem=up stem=down name="Harmony"
V:C gstem=up stem=down name="C-Harmony"
V:S gstem=up stem=down dyn=up stafflines=1 clef=perc middle=G name="Snare" sname="Snare"
V:B gstem=up stem=down clef=none dyn=up name="Bass"
V:T gstem=up stem=down clef=none dyn=up name="Tenor"
V:BB gstem=up stem=down name="Brass Bass" sname="ABCD-C" transpose=-1  octave=-1 clef=bass
V:BC gstem=up stem=down name="Brass Chord" sname="ABCD-D" transpose=-1
V:BD gstem=up stem=down name="Brass Chord 2" sname="ABCD-B" transpose=-1
V:P gstem=up stem=down name="Piano" octave=-1
I:MIDI=program 110
%%MIDI gracedivider 4
I:linebreak $
%%MIDI program 109 #bagpipes
%%MIDI vol 100
%%score {M}
[V:M]|: {g}A{d}A{e}A {gcd}c2e        | {ag}a2e      {gcd}c2e        | {g}A{d}A{e}A {Gdc}d2f     | {ag}a2f      {Gdc}d2f | $
[V:M][1{g}A{d}A{e}A {gcd}c2e        | {ag}a2e      {gcd}c2e        | {g}B{d}B{e}B {gcd}c2e     | {g}B{d}B{e}B {gcd}c2e :| $
[V:M][2{g}efg       agf             | {gef}e2d     {gcd}c2B        | {g}A{d}ce    aec          | {G}A6                 || $
[V:M]|: {ag}a2e      {gcd}c2e        | {ag}a2e      {gcd}c2e        | {ag}a2f      {Gdc}d2f     | {ag}a2f      {Gdc}d2f | $
[V:M][1{ag}a2e      {gcd}c2e        | {ag}a2e      {gcd}c2e        | {g}B{d}B{e}B {gcd}c2e     | {g}B{d}B{e}B {gcd}c2e :| $
[V:M][2{g}efg       agf             | {gef}e2d     {gcd}c2B        | {g}A{d}ce    aec          | {G}A3        {ag}a3   || $
[V:M]|: {g}A{d}A{e}A {gcd}c2e        | {g}A{d}A{e}A {gcd}c2e        | {g}B{d}B{e}B {Gdc}d2f     | {g}B{d}B{e}B {Gdc}d2f | $
[V:M][1{g}A{d}A{e}A {gcd}c2e        | {g}A{d}A{e}A {gcd}c2e        | {gBd}B2e     {g}c{d}c{e}c | {g}B{d}B{e}B {gcd}c2e :| $
[V:M][2{g}efg       agf             | {gef}e2d     {gcd}c2B        | {g}A{d}ce    aec          | {G}A3        {g}A{d}ce|| $
[V:M][| {ag}a2e      {g}ce{A}e       | {ag}a2e      {g}ce{A}e       | {ag}a2f      {g}df{e}f    | {ag}a2f      {g}df{e}f | $
[V:M]{ag}a2e      {g}ce{A}e       | {ag}a2e      {g}ce{A}e       | {g}Be{A}e    {g}ce{A}e    | {g}Be{A}e    {g}ce{A}e | $
[V:M]{ag}ae{A}e   {g}ce{A}e       | {ag}ae{A}e   {g}ce{A}e       | {ag}af{e}f   {g}df{e}f    | {ag}af{e}f   {g}df{e}f | $                
[V:M]{g}efg       agf             | {g}efe       {g}dcB          | {g}A{d}ce    aec          | {G}A3        {ag}a3    || $
[V:S]|: {A}c(rcc)    Ac{c}A          | c/A/c/A/!>!c !>!AcA | cA(rc        c)A(rc       | c){c}Ac {c}AcA | 
[V:S]| {A}c(rcc)    Ac{c}A          | c/A/c/A/!>!c !>!AcA | !>!(Rc2!v!A) !>!(Rc2!v!A) | c{c}Ac  {c}A3A :| 
[V:S]|: {A}c(rcc)    A(rcc)          | A(rcc)       !>!AcA | {A}c(rcc)      A(rcc)     | {c}A3 z3 |
[V:S]{A}c(rcc)    A(rcc)          | A(rcc)       !>!AcA | !>!(Rc2!v!A) !>!(Rc2!v!A) | c{c}Ac  {c}A3A :| 
[V:S]|: c/A/c/A/c/A/ !>!c/A/c/A/c/A/ | c/A/c/A/c    !>!AcA | (rcc)A       c/A/c/A/c    | Ac{c}A  {A}c2A |
[V:S]c/A/c/A/c/A/ !>!c/A/c/A/c/A/ | c/A/c/A/c    !>!AcA | !>!(Rc2!v!A) !>!(Rc2!v!A) | c{c}Ac  {c}A3A :| 
[V:S]|: cc/A/c/A/    !>!cAc          | A(rcc)       !>!AcA | (rcc)A       c/A/c/A/c    | Ac{c}A  {A}c2A |  
[V:S]cc/A/c/A/    !>!cAc          | A(rcc)       !>!AcA | !>!(Rc2!v!A) !>!(Rc2!v!A) | c{c}Ac  {c}A2A :| 
[V:B][ !>!c3 A3 | !>!c3 A3 | !>!c3 A3 | !>!c3 A3 | $
[V:B]  !>!c3 A3 | !>!c3 A3 | !>!c3 A3 | !>!c3 A3 |] $
[V:B][ !>!c3 A3 | !>!c3 A3 | !>!c3 A3 | !>!c3 A3 | $
[V:B]  !>!c3 A3 | !>!c3 A3 | !>!c3 A3 | !>!c3 A3 |] $
[V:B][ !>!c3 A3 | !>!c3 A3 | !>!c3 A3 | !>!c3 A3 | $
[V:B]  !>!c3 A3 | !>!c3 A3 | !>!c3 A3 | !>!c3 A3 |] $

[V:S]|: {A}cAc {c}A2{c}A             | cA{A}c {c}A2A           | (rcc)A       c/A/c/A/!>!c | Ac{c}A {A}c2A |
[V:S]{A}cAc {c}A2{c}A             | cA{A}c {c}A2A           | !>!(Rc2!v!A) !>!(Rc2!v!A) | cA{A}c  {c}A2A :| 
[V:S]|: {A}cAc Ac{c}A                | cA{A}c {c}A2A           | (rcc)A       c/A/c/A/!>!c | Ac{c}A {A}c2A |
[V:S]{A}cAc Ac{c}A                | cA{A}c {c}A2A           | !>!(Rc2!v!A) !>!(Rc2!v!A) | cA{A}c  {c}A2A :| 
[V:S]|: c/A/c/A/c/A/ !>!c/A/c/A/c/A/ | c/A/c/A/c    !>!AcA     | (rcc)A       c/A/c/A/c    | Ac{c}A  {A}c2A |
[V:S]c/A/c/A/c/A/ !>!c/A/c/A/c/A/ | c/A/c/A/c    !>!AcA     | !>!(Rc2!v!A) !>!(Rc2!v!A) | cA{A}c  {c}A2A :| 
[V:S]|: cc/A/c/A/    !>!cAc          | A(rcc)       !>!AcA     | (rcc)A       c/A/c/A/c    | Ac{c}A  {A}c2A |  
[V:S]cc/A/c/A/    !>!cAc          | A(rcc)       !>!AcA    | !>!(Rc2!v!A) !>!(Rc2!v!A) | cA{A}c  {c}A2A :| 
[V:B][ !>!c3 A3 | !>!c3 A3 | !>!c3 A3 | !>!c3 A3 | $
[V:B]  !>!c3 A3 | !>!c3 A3 | !>!c3 A3 | !>!c3 A3 |] $
[V:B][ !>!c3 A3 | !>!c3 A3 | !>!c3 A3 | !>!c3 A3 | $
[V:B]  !>!c3 A3 | !>!c3 A3 | !>!c3 A3 | !>!c3 A3 |] $
[V:B][ !>!c3 A3 | !>!c3 A3 | !>!c3 A3 | !>!c3 A3 | $
[V:B]  !>!c3 A3 | !>!c3 A3 | !>!c3 A3 | !>!c3 A3 |] $
W: The snare 3rd and 4th parts are identical to 
W:   Glasgow Police Pipers parts 1 and 2; and
W:   Banjo Breakdown parts 3 and 4.
W: except for the flams in the last bar.

